X:1
T:Anglais ur Göran Peter Göranssons notbok
O:Södra Ustorp, Säby sn., Småland
R:Engelska
S:Göran Peter Göransson
Z:till abc Jonas Brunskog
B:Småländsk musiktradition
N:Småländsk musiktradition X:6
M:2/4
L:1/16
K:F
|:fefc AcAc|BABd dcBc|fefc AcAc|(BA)BG F4:|
|:A2c2 f2a2|g2eg a2(f2|A2)c2 f2a2|(gb)eg f4:|

